!!!COM: Schubert, Franz
!!!CNT: Deutscher
!!!TXO: Deutsch
!!!LYR: Friedrich Schlegel
!!!OTL: "Die Rose"
!!!OPS: Op. 73
!!!ODT: 1822/
!!NB: Vocal melody only encoded.
!!NB: Original key
**kern	**silbe
*staff1	*
*clefG2	*
*k[f#]	*
*M2/4	*
*MM[Massig, zart]	*
=4	=4
4r	.
8r	.
{8dd	{Es
=5	=5
8b	lock-
8dd	-te
8ee	scho2-
8b	-ne
=6	=6
4dd	Wa2r-
8b	-me,
8r	.
=7	=7
8a	mich
16b	an
16cc	das
8dd	Licht
8g	zu
=8	=8
4cc	wa-
8b}	-gen;}
8r	.
=9	=9
4r	.
8r	.
{8g	{da
=10	=10
8.g	brann-
16g	-ten
8g	wil-
8b-	-de
=11	=11
4b-	Glu-
8b-	-ten,
8dd	das
=12	=12
8.dd	muss
16dd	ich
8ee	e-
8dd	-wig
=13	=13
4cc	kla-
8b}	-gen.}
8r	.
=14	=14
2r	.
=15	=15
4r	.
8r	.
{8dd	{Ich
=16	=16
8b	konn-
8dd	-te
8ee	lan-
8b	-ge
=17	=17
4dd	blu2-
8b	-hen
8b	in
=18	=18
8a	mil-
16b	-den
16cc	|
8dd	hei-
8g	-tern
=19	=19
4cc	Ta-
8b}	-gen;}
8r	.
=20	=20
4r	.
8r	.
{8g	{nun
=21	=21
8.g	muss
16g	ich
8g	fru2-
8b-	-he
=22	=22
4b-	wel-
8b-	-ken,
8dd	dem
=23	=23
8.dd	Le-
16dd	-ben
8ee	schon
8dd	ent-
=24	=24
4cc	-sa-
8b}	-gen.}
8r	.
=25	=25
2r	.
=26	=26
4r	.
8r	.
{8b	{Es
=27	=27
8dd	kam
8cc#	die
8b	Mor-
8cc#	-gen-
=28	=28
4dd	-ro2-
8a	-te,
8dd	da
=29	=29
8.dd	liess
16dd	ich
16ff#	al-
16ee	|
16dd	-les
16ee	|
=30	=30
4ff#	Za-
8dd}	-gen}
{16ff#	{und
16dd	|
=31	=31
8.dd	o2ff-
16cc#	-ne-
8b	-te
8cc#	die
=32	=32
4dd	Knos-
8a	-pe,
8dd	wo
=33	=33
8.dd	al-
16dd	-le
16ff#	Rei-
16ee	|
16dd	-ze
16ee	|
=34	=34
4ff#	la-
8dd}	-gen.}
{8dd	{Ich
=35	=35
8.b	konn-
16b	-te
8.ee	freund-
16dd	-lich
=36	=36
8dd	duf-
8cc	-ten
8r	.
8cc	und
=37	=37
8.cc	mei-
16cc	-ne
8.ff#	Kro-
16ee	-ne
=38	=38
8ee	tra-
8dd}	-gen;}
16r	.
{16dd	{da
16dd	ward
16dd	zu
=39	=39
4ee-	heiss
8r	.
8dd	die
=40	=40
4gg	Son-
8ff#	-ne,
8dd	die
=41	=41
8.cc	muss
16cc	ich
8dd	drum
8dd	ver-
=42	=42
2ee-	-kla-
=43	=43
4.dd}	-gen.}
{8dd	{Was
=44	=44
*k[b-e-]	*
8b-	soll
8dd	der
8ee-	mil-
8b-	-de
=45	=45
4dd	A-
8b-	-bend?
8r	.
=46	=46
8a	muss
16b-	ich
16cc	nun
8dd	trau-
8g	-rig
=47	=47
4cc	fra-
8b-}	-gen.}
8r	.
=48	=48
4r	.
8r	.
{8g	{Er
=49	=49
8.g	kann
16g	mich
8g	nicht
8b-	mehr
=50	=50
4b-	ret-
8b-	-ten,
8dd	die
=51	=51
8.dd	Schmer-
16dd	-zen
8ee-	nicht
8dd	ver-
=52	=52
4cc	-ja-
8b-}	-gen.}
8r	.
=53	=53
2r	.
=54	=54
4r	.
8r	.
{8dd	{Die
=55	=55
8b-	Ro2-
8dd	-te
8ee-	ist
16b-	ver-
16cc	|
=56	=56
4dd	-blich-
8b-	-en,
8r	.
=57	=57
8a	bald
16b-	wird
16cc	mich
8dd	Ka2l-
8g	-te
=58	=58
4cc	na-
8b-}	-gen.}
8r	.
=59	=59
4r	.
8r	.
{8g	{Mein
=60	=60
8.g	kur-
16g	-zes
8g	jun-
8b-	-ges
=61	=61
4b-	Le-
8b-	-ben
8dd	wollt'
=62	=62
8.dd	ich
16dd	noch
8ee-	ster-
8dd	-bend
=63	=63
4cc	sa-
8b-}	-gen,}
{8dd	{wollt'
=64	=64
8.dd	ich
16dd	noch
8een	ster-
8dd	-bend
=65	=65
4cc	sa-
8bn}	-gen.}
8r	.
==	==
*-	*-
